packages/ui-icons/svg/Line/line-reader.svg

<svg viewBox="0 0 1920 1920" xmlns="http://www.w3.org/2000/svg">
    <g fill-rule="evenodd">
        <path fill-rule="nonzero" d="M320.001 212.118 1600 214.549l.2-106.666-1279.997-2.432z"/>
        <path d="M266.667 533.334c-29.456 0-53.334 23.878-53.334 53.333v320c0 29.455 23.878 53.333 53.334 53.333H1653.33c29.46 0 53.34-23.878 53.34-53.333v-320c0-29.455-23.88-53.333-53.34-53.333H266.667ZM320 640v213.334h1280V640H320Z"/>
        <path d="M53.333 320C23.878 320 0 343.878 0 373.334v959.996c0 29.46 23.878 53.34 53.333 53.34H1866.67c29.45 0 53.33-23.88 53.33-53.34V373.334c0-29.456-23.88-53.334-53.33-53.334H53.333Zm53.334 106.667V1280H1813.33V426.667H106.667Z"/>
        <path fill-rule="nonzero" d="m1600 1601.22-1279.999-2.44.202-106.66 1279.997 2.43zm-1280.019 210.9 1066.669 2.43.24-106.67-1066.666-2.43z"/>
    </g>
</svg>

<svg viewBox="0 0 1920 1920" version="1.1" xmlns="http://www.w3.org/2000/svg">
    <g stroke="none" stroke-width="1" fill-rule="evenodd">
        <path fill-rule="nonzero" d="M320.001 212.118L1600 214.549 1600.2 107.883 320.203 105.451z"/>
        <path d="M266.667,533.334 C237.211,533.334 213.333,557.212 213.333,586.667 L213.333,906.667 C213.333,936.122 237.211,960 266.667,960 L1653.33,960 C1682.79,960 1706.67,936.122 1706.67,906.667 L1706.67,586.667 C1706.67,557.212 1682.79,533.334 1653.33,533.334 L266.667,533.334 Z M320,640 L320,853.334 L1600,853.334 L1600,640 L320,640 Z"/>
        <path d="M53.3333,320 C23.8781,320 0,343.878 0,373.334 L0,1333.33 C0,1362.79 23.8782,1386.67 53.3334,1386.67 L1866.67,1386.67 C1896.12,1386.67 1920,1362.79 1920,1333.33 L1920,373.334 C1920,343.878 1896.12,320 1866.67,320 L53.3333,320 Z M106.667,426.667 L106.667,1280 L1813.33,1280 L1813.33,426.667 L106.667,426.667 Z"/>
        <path fill-rule="nonzero" d="M1600 1601.22L320.001 1598.78 320.203 1492.12 1600.2 1494.55zM319.981 1812.12L1386.65 1814.55 1386.89 1707.88 320.224 1705.45z"/>
    </g>
</svg>
